icons/shuffle-fill.svg

<svg viewBox="0 0 24 24" fill="currentColor" xmlns="http://www.w3.org/2000/svg"><path d="M18 17.8832V16L23 19L18 22V19.9095C14.9224 19.4698 12.2513 17.4584 11.0029 14.5453L11 14.5386L10.9971 14.5453C9.57893 17.8544 6.32508 20 2.72483 20H2V18H2.72483C5.52503 18 8.05579 16.3312 9.15885 13.7574L9.91203 12L9.15885 10.2426C8.05579 7.66878 5.52503 6 2.72483 6H2V4H2.72483C6.32508 4 9.57893 6.14557 10.9971 9.45473L11 9.46141L11.0029 9.45473C12.2513 6.5416 14.9224 4.53022 18 4.09051V2L23 5L18 8V6.11684C15.7266 6.53763 13.7737 8.0667 12.8412 10.2426L12.088 12L12.8412 13.7574C13.7737 15.9333 15.7266 17.4624 18 17.8832Z"/></svg>

<svg xmlns="http://www.w3.org/2000/svg" viewBox="0 0 24 24">
    <g>
        <path fill="none" d="M0 0h24v24H0z"/>
        <path d="M18 17.883V16l5 3-5 3v-2.09a9 9 0 0 1-6.997-5.365L11 14.54l-.003.006A9 9 0 0 1 2.725 20H2v-2h.725a7 7 0 0 0 6.434-4.243L9.912 12l-.753-1.757A7 7 0 0 0 2.725 6H2V4h.725a9 9 0 0 1 8.272 5.455L11 9.46l.003-.006A9 9 0 0 1 18 4.09V2l5 3-5 3V6.117a7 7 0 0 0-5.159 4.126L12.088 12l.753 1.757A7 7 0 0 0 18 17.883z"/>
    </g>
</svg>
